icons/award-outline.svg

<svg xmlns="http://www.w3.org/2000/svg" width="24" height="24" viewBox="0 0 24 24">
  <path d="M12,1 C15.8659932,1 19,4.13400675 19,8 C19,9.9094845 18.2354427,11.6403971 16.995757,12.9033089 L17.9938837,21.8895685 C18.0772336,22.6397176 17.33764,23.1939157 16.6546936,22.9388355 L16.5527864,22.8944272 L12,20.618 L7.4472136,22.8944272 C6.77213082,23.2319686 5.99642138,22.7295653 5.9996657,22.0005445 L6.00611627,21.8895685 L7.00424296,12.9033089 C5.76455727,11.6403971 5,9.9094845 5,8 C5,4.13400675 8.13400675,1 12,1 Z M15.1343541,14.2607688 C14.191401,14.7337651 13.1267917,15 12,15 C10.8732083,15 9.80859902,14.7337651 8.8656459,14.2607688 L8.196,20.283 L11.5527864,18.6055728 C11.7940957,18.4849182 12.0720256,18.4676818 12.3237979,18.5538637 L12.4472136,18.6055728 L15.803,20.283 Z M12,3 C9.23857625,3 7,5.23857625 7,8 C7,10.7614237 9.23857625,13 12,13 C14.7614237,13 17,10.7614237 17,8 C17,5.23857625 14.7614237,3 12,3 Z"/>
</svg>

<svg xmlns="http://www.w3.org/2000/svg" viewBox="0 0 24 24">
  <path d="M12 1a7 7 0 0 1 5 11.9l1 8.99a1 1 0 0 1-1.35 1.05l-.1-.05L12 20.62l-4.55 2.27A1 1 0 0 1 6 22v-.11l1-8.99A7 7 0 0 1 12 1zm3.13 13.26a6.97 6.97 0 0 1-6.26 0l-.67 6.02 3.35-1.67a1 1 0 0 1 .77-.06l.13.06 3.35 1.67zM12 3a5 5 0 1 0 0 10 5 5 0 0 0 0-10z"/>
</svg>
